digitransit-component/packages/digitransit-component-icon/src/assets/mode_airplane.svg

<svg viewBox="0 0 24 24" fill="none" xmlns="http://www.w3.org/2000/svg">
    <path d="M21.6005 24.0008H2.40034C1.07444 24.0008 0 22.9264 0 21.6014V2.40034C0 1.07444 1.07444 0 2.40034 0H21.6005C22.9264 0 24.0008 1.07444 24.0008 2.40034V21.6014C24 22.9264 22.9256 24.0008 21.6005 24.0008Z" fill="#0046AD"/>
    <path d="M20.5015 3.49933C19.7895 2.78727 17.6372 3.78551 16.9251 4.49756L13.3902 8.03245L4.81761 6.94024C4.45523 6.89367 4.09116 7.01813 3.83292 7.27722L2.74578 8.36435L9.36936 12.5478L6.70655 15.5383L3.87526 15.6069C3.61533 15.6128 3.49002 15.9277 3.67375 16.1115L7.88937 20.3271C8.07309 20.5108 8.38721 20.3847 8.39399 20.1256L8.46257 17.2943L11.453 14.6315L15.6365 21.2551L16.7236 20.1679C16.9819 19.9097 17.1063 19.5456 17.0606 19.1832L15.9692 10.6097L19.5041 7.07486C20.2153 6.36365 21.2136 4.21139 20.5015 3.49933Z" fill="white"/>
</svg>

<svg xmlns="http://www.w3.org/2000/svg" fill="none" viewBox="0 0 24 24">
 <path fill="#0046ad" d="M21.6 24H2.4A2.4 2.4 0 0 1 0 21.602v-19.2A2.4 2.4 0 0 1 2.4 0h19.2A2.4 2.4 0 0 1 24 2.4v19.201a2.4 2.4 0 0 1-2.4 2.4"/>
 <path fill="#fff" d="M20.502 3.5c-.712-.713-2.865.286-3.577.998L13.39 8.032 4.818 6.94a1.18 1.18 0 0 0-.985.337L2.746 8.364l6.623 4.184-2.662 2.99-2.832.069a.296.296 0 0 0-.201.505l4.215 4.215a.296.296 0 0 0 .505-.201l.069-2.832 2.99-2.662 4.184 6.623 1.087-1.087c.258-.258.382-.622.337-.985l-1.092-8.573 3.535-3.535c.711-.711 1.71-2.864.997-3.576"/>
</svg>
